X:62
T:trafaelais i gymru
R:double jig
S:davidson's musical miracles
H:1859
B:two hundred and fifty welsh airs for a shilling
B:adapted for the violin, flute, accordion
B:or any treble instrument
O:traditional welsh
Z:crm
M:6/8
L:1/8
Q:3/8=120
K:Bm
A|~d3 dfe|dcd B2c|d2e cBA|dcd B2A|
dcd dfe|dcd B2c|d2e cBA|dcd B2:|
f|f2g a2a|a2b a2g|f>bb agf|gfe f2d|
fgf fed|efe edc|d2z z2d|
BcB Bff|{g}fed e2f|dcB cBA|B3z:||
